X: 2425
T: Ballinahulla Butterfly, The
R: polka
M: 2/4
K: Bminor
|:Bd|e/g/e/d/ BA|FE E>F|DE FA|Bd {f}dc/d/|
e/g/e/d/ BA|FE E>F|DE FA|B2:|
|:B>A|Bd BA/F/|AB d>e|fa b/c'/b/a/|fe e>d|
Bd BA/F/|AB df/d/|DE FA|B2:|

